!!!OTL: Waldvoegeleins Bitte
!!!ARE: Europa, Mitteleuropa, Deutschland
!!!SCT: A0115
!!!YEM: Copyright 1995, estate of Helmut Schaffrath.
**kern
*ICvox
*Ivox
!! Mixed meters:  4/2; 3/2
*M4/2
*k[b-]
*F:
{2f
=1
2f
2g
2a
2b-
=2
*M3/2
2.cc
4cc
2cc}
=3
{2cc
=4
*M4/2
2dd
2cc
2cc
2b-
=5
*M3/2
1cc
2r}
=6
{2cc
=7
*M4/2
2cc
2cc
2dd
2b-
=8
*M3/2
1cc
2b-}
=9
{2a
=10
*M4/2
2g
2a
2cc
[2cc
=11
2cc]
4b-
4a
1g
=12
*M3/2
1f
2r}
=13
{2cc
=14
1cc
2b-
=15
1a
2g
=16
1f
2f
=17
1g
2r}
=18
{2f
=19
*M4/2
2f
2g
2a
2b-
=20
*M3/2
2.cc
4dd
2cc}
=21
{2cc
=22
*M4/2
2.a
4b-
4cc
4dd
[2cc
=23
2cc]
4b-
4a
1g
=24
1.f}
==
!!!AGN: Romanze, Ballade, Lied
!! Melodie aus Gerle, Tabulatur 1546.
!!!ONB: ESAC (Essen Associative Code) Database: ALTDEU
!!!AMT: irregular
!!!AIN: vox
!!!EED: Helmut Schaffrath
!!!EEV: 1.0
*-
